docs/style/images/html5.svg

<svg width="24" height="27" xmlns="http://www.w3.org/2000/svg"><path d="M.665.411l2.063 23.176 9.258 2.574 9.284-2.578L23.335.411H.664h.001zm4.286 5.5l-.068-.763h7.107V7.99H7.985l.259 2.911h3.746v2.842H5.649L4.951 5.91v.001zm13.567 5.754l-.667 7.483-.043.48-5.822 1.616-5.814-1.616-.398-4.463h2.849l.202 2.267 3.163.854 3.165-.856.329-3.686h-3.485v-2.842h6.587l-.069.763h.003zm.514-5.754l-.129 1.441-.057.639H12V5.149h7.1l-.068.762z" fill="#3C3C3C"/></svg>

<?xml version="1.0" encoding="UTF-8"?>
<svg width="24px" height="27px" viewBox="0 0 24 27" version="1.1" xmlns="http://www.w3.org/2000/svg" xmlns:xlink="http://www.w3.org/1999/xlink">
    <!-- Generator: Sketch 48.2 (47327) - http://www.bohemiancoding.com/sketch -->
    <title>html5</title>
    <desc>Created with Sketch.</desc>
    <defs></defs>
    <g id="Page-1" stroke="none" stroke-width="1" fill="none" fill-rule="evenodd">
        <g id="html5" fill="#3C3C3C" fill-rule="nonzero">
            <path d="M0.665,0.411 L2.728,23.587 L11.986,26.161 L21.27,23.583 L23.335,0.411 L0.664,0.411 L0.665,0.411 Z M4.951,5.911 L4.883,5.148 L11.99,5.148 L11.99,7.99 L7.985,7.99 L8.244,10.901 L11.99,10.901 L11.99,13.743 L5.649,13.743 L4.951,5.91 L4.951,5.911 Z M18.518,11.665 L17.851,19.148 L17.808,19.628 L11.986,21.244 L6.172,19.628 L5.774,15.165 L8.623,15.165 L8.825,17.432 L11.988,18.286 L15.153,17.43 L15.482,13.744 L11.997,13.744 L11.997,10.902 L18.584,10.902 L18.515,11.665 L18.518,11.665 Z M19.032,5.911 L18.903,7.352 L18.846,7.991 L12,7.991 L12,5.149 L19.1,5.149 L19.032,5.911 Z" id="Shape"></path>
        </g>
    </g>
</svg>
